!! J.S. Bach "Gavotte en Rondeau" from Partita No. 3, solo violin, BWV 1006.
!! From 'Neue Ausgabe Saemtlicher Werke' Serie VI: Kammermusikwerke,
!! Band 1 ('Werke fuer Violine') Baerenreiter Kassel (Basel) 1958; pp.58-60
!! This work has been error-checked using the double-entry method.
!! NOTE: The repeat between bars 1 and 8 has been expanded in this encoding.
!! NOTE: The 'monophonic' score has been expanded to a three-voice
!!       format to simplify the encoding of multiple stops.
!! NOTE: A single double-stop occurs in bar 86.
**kern	**kern	**kern
*M2/2	*M2/2	*M2/2
2r	4e	4b
.	4r	4gg#
=1	=1	=1
1r	4a	4gg#T
.	2.r	8ff#
.	.	8ee
.	.	4ff#
.	.	4aa
=2	=2	=2
1r	2b	2aa
.	2r	{8bb
.	.	8gg#}
.	.	{8aa
.	.	8ff#}
=3	=3	=3
1r	1r	{8b
.	.	16ff#
.	.	16gg#
.	.	8aa}
.	.	8ff#
.	.	{8gg#
.	.	8ee}
.	.	{8ff#
.	.	8dd#}
=4	=4	=4
1r	1r	{8ee
.	.	8b
.	.	8g#}
.	.	8e
.	.	8g#
.	.	8b
.	.	8ee
.	.	8gg#
=5	=5	=5
1r	1r	{8a
.	.	8gg#
.	.	8ff#}
.	.	8ee
.	.	8ff#
.	.	8gg#
.	.	8aa
.	.	8ff#
=6	=6	=6
1r	2b	2aa
.	4e	4b
.	4r	4gg#
=7	=7	=7
1r	4a	4cc#
.	4r	4ff#
.	4B	4f#
.	4r	4dd#
=8	=8	=8
1r	2e	2ee
.	4e	4b
.	4r	4gg#
=9	=9	=9
1r	4a	4gg#T
.	2.r	8ff#
.	.	8ee
.	.	4ff#
.	.	4aa
=10	=10	=10
1r	2b	2aa
.	2r	{8bb
.	.	8gg#}
.	.	{8aa
.	.	8ff#}
=11	=11	=11
1r	1r	{8b
.	.	16ff#
.	.	16gg#
.	.	8aa}
.	.	8ff#
.	.	{8gg#
.	.	8ee}
.	.	{8ff#
.	.	8dd#}
=12	=12	=12
1r	1r	{8ee
.	.	8b
.	.	8g#}
.	.	8e
.	.	8g#
.	.	8b
.	.	8ee
.	.	8gg#
=13	=13	=13
1r	1r	{8a
.	.	8gg#
.	.	8ff#}
.	.	8ee
.	.	8ff#
.	.	8gg#
.	.	8aa
.	.	8ff#
=14	=14	=14
1r	2b	2aa
.	4e	4b
.	4r	4gg#
=15	=15	=15
1r	4a	4cc#
.	4r	4ff#
.	4B	4f#
.	4r	4dd#
=16	=16	=16
1r	2e	2ee
.	4e	4b
.	4r	4gg#
=17	=17	=17
1r	4a	4cc#
.	4r	{8cc#
.	.	8b#}
.	4g#	{8cc#
.	.	8ee}
.	4r	{8dd#
.	.	8b}
=18	=18	=18
1r	2f#	{4b#
.	.	4cc#}
.	4e	{8cc#
.	.	8dd#
.	4r	8ee}
.	.	8gg#
=19	=19	=19
1r	4f#	{8cc#
.	.	8dd#
.	2.r	8ee}
.	.	8aa
.	.	{8dd#
.	.	8ff#}
.	.	{8ee
.	.	8cc#}
=20	=20	=20
1r	1r	{8b#
.	.	8dd#}
.	.	{8g#
.	.	8f#}
.	.	8e
.	.	8g#
.	.	8cc#
.	.	8ee
=21	=21	=21
1r	1r	{8gg#
.	.	8aa
.	.	8bb}
.	.	8cc#
.	.	8e#
.	.	8cc#
.	.	8gg#
.	.	8bb
=22	=22	=22
1r	1r	{8bb
.	.	8gg#}
.	.	{8aa
.	.	8ff#}
.	.	{8a
.	.	8b#
.	.	8dd#}
.	.	8ff#
=23	=23	=23
1r	1r	8ff#
.	.	8dd#
.	.	8ee
.	.	8cc#
.	.	4g#
.	.	4b#
=24	=24	=24
1r	2r	2c#
.	4e	4bn
.	4r	4gg#
=25	=25	=25
1r	4a	4gg#T
.	2.r	8ff#
.	.	8ee
.	.	4ff#
.	.	4aa
=26	=26	=26
1r	2b	2aa
.	2r	{8bb
.	.	8gg#}
.	.	{8aa
.	.	8ff#}
=27	=27	=27
1r	1r	{8b
.	.	16ff#
.	.	16gg#
.	.	8aa}
.	.	8ff#
.	.	{8gg#
.	.	8ee}
.	.	{8ff#
.	.	8dd#}
=28	=28	=28
1r	1r	{8ee
.	.	8b
.	.	8g#}
.	.	8e
.	.	8g#
.	.	8b
.	.	8ee
.	.	8gg#
=29	=29	=29
1r	1r	{8a
.	.	8gg#
.	.	8ff#}
.	.	8ee
.	.	8ff#
.	.	8gg#
.	.	8aa
.	.	8ff#
=30	=30	=30
1r	2b	2aa
.	4e	4b
.	4r	4gg#
=31	=31	=31
1r	4a	4cc#
.	4r	4ff#
.	4B	4f#
.	4r	4dd#
=32	=32	=32
1r	2e	2ee
.	2r	8e
.	.	8f#
.	.	8g#
.	.	8a
=33	=33	=33
1r	4r	4b
.	{8e	4b
.	8f#}	.
.	{8g#	4b
.	8f#}	.
.	{8g#	4ee
.	8f#}	.
=34	=34	=34
1r	{8g#	2b
.	8f#	.
.	8g#	.
.	8e}	.
.	2r	8cc#
.	.	8a
.	.	{8dd#
.	.	8ee}
=35	=35	=35
1r	1r	8b
.	.	8g#
.	.	{8dd#
.	.	8ee}
.	.	8a
.	.	8f#
.	.	{8dd#
.	.	8ee}
=36	=36	=36
1r	1r	{8g#
.	.	8f#
.	.	8e}
.	.	8f#
.	.	8g#
.	.	8b
.	.	8ee
.	.	8gg#
=37	=37	=37
1r	4r	4ff#
.	{8b	4ff#
.	8cc#}	.
.	{8dd#	4ff#
.	8cc#}	.
.	{8dd#	4bb
.	8cc#}	.
=38	=38	=38
1r	{8dd#	2ff#
.	8cc#	.
.	8dd#	.
.	8b}	.
.	2r	8gg#
.	.	8ee
.	.	{8aa#
.	.	8bb}
=39	=39	=39
1r	1r	8ff#
.	.	8dd#
.	.	{8aa#
.	.	8bb}
.	.	8ee
.	.	8cc#
.	.	{8aa#
.	.	8bb}
=40	=40	=40
1r	2r	{8ee
.	.	8dd#}
.	.	{8cc#
.	.	8b}
.	{8cc#	4ee
.	8dd#}	.
.	{8ee	4ee
.	8dd#}	.
=41	=41	=41
1r	{8cc#	2ee
.	8b	.
.	8a#	.
.	8b}	.
.	{8cc#	4ee
.	8dd#}	.
.	{8ee	4ee
.	8cc#}	.
=42	=42	=42
1r	2f#	2ee
.	2r	{8aa#
.	.	8ee}
.	.	{8ccc#
.	.	8ee}
=43	=43	=43
1r	1r	{8f#
.	.	8ee
.	.	8aa#}
.	.	8ee
.	.	{8aa#
.	.	8ee}
.	.	{8ccc#
.	.	8ee}
=44	=44	=44
1r	2f#	2ee
.	4B	4f#
.	4r	4dd#
=45	=45	=45
1r	4e	4dd#T
.	2.r	8cc#
.	.	8b
.	.	4cc#
.	.	4ee
=46	=46	=46
1r	4f#	4ee
.	2.r	8dd#
.	.	8cc#
.	.	{8dd#
.	.	8ee}
.	.	{8ff#
.	.	8dd#}
=47	=47	=47
1r	2r	8b
.	.	8g#
.	.	8e
.	.	8ee
.	2f#	4.cc#
.	.	8b
=48	=48	=48
2B	2f#	2b
2r	4e	4b
.	4r	4gg#
=49	=49	=49
1r	4a	4gg#T
.	2.r	8ff#
.	.	8ee
.	.	4ff#
.	.	4aa
=50	=50	=50
1r	2b	2aa
.	2r	{8bb
.	.	8gg#}
.	.	{8aa
.	.	8ff#}
=51	=51	=51
1r	1r	{8b
.	.	16ff#
.	.	16gg#
.	.	8aa}
.	.	8ff#
.	.	{8gg#
.	.	8ee}
.	.	{8ff#
.	.	8dd#}
=52	=52	=52
1r	1r	{8ee
.	.	8b
.	.	8g#}
.	.	8e
.	.	8g#
.	.	8b
.	.	8ee
.	.	8gg#
=53	=53	=53
1r	1r	{8a
.	.	8gg#
.	.	8ff#}
.	.	8ee
.	.	8ff#
.	.	8gg#
.	.	8aa
.	.	8ff#
=54	=54	=54
1r	2b	2aa
.	4e	4b
.	4r	4gg#
=55	=55	=55
1r	4a	4cc#
.	4r	4ff#
.	4B	4f#
.	4r	4dd#
=56	=56	=56
1r	2e	2ee
.	2r	8e
.	.	8g#
.	.	8b
.	.	8ee
=57	=57	=57
1r	1r	{8f#
.	.	8ee
.	.	8ddn}
.	.	8cc#
.	.	8dd
.	.	8f#
.	.	8g#
.	.	8dd
=58	=58	=58
1r	1r	8cc#
.	.	8b
.	.	8a
.	.	8g#
.	.	8f#
.	.	8cc#
.	.	8ff#
.	.	8aa
=59	=59	=59
1r	1r	{8b
.	.	8aa
.	.	8gg#}
.	.	8ff#
.	.	8gg#
.	.	8ee#
.	.	8ff#
.	.	8b#
=60	=60	=60
1r	1r	{8cc#
.	.	8ff#
.	.	8ee#}
.	.	8ff#
.	.	8gg#
.	.	8aa
.	.	8bb
.	.	8gg#
=61	=61	=61
1r	1r	{8aa
.	.	8cc#
.	.	8f#}
.	.	8g#
.	.	8a
.	.	8b
.	.	8cc#
.	.	8een
=62	=62	=62
1r	1r	{8ddn
.	.	8f#
.	.	8B}
.	.	8c#
.	.	8dn
.	.	8e
.	.	8f#
.	.	8a
=63	=63	=63
1r	1r	{8g#
.	.	8b
.	.	8e}
.	.	8f#
.	.	8g#
.	.	8a
.	.	8b
.	.	8ddn
=64	=64	=64
1r	1r	{8cc#
.	.	8b
.	.	8a}
.	.	8cc#
.	.	8ff#
.	.	8ee#
.	.	8ff#
.	.	8cc#
=65	=65	=65
1r	1r	{8a#
.	.	8cc#
.	.	8een}
.	.	8ggn
.	.	8ff#
.	.	8ee
.	.	8ddn
.	.	8cc#
=66	=66	=66
1r	1r	{8ddn
.	.	8cc#
.	.	8b}
.	.	8ff#
.	.	8bb
.	.	8aa#
.	.	8bb
.	.	8dd
=67	=67	=67
1r	1r	{8e#
.	.	8cc#
.	.	8bb}
.	.	8dddn
.	.	8ccc#
.	.	8bb
.	.	8aan
.	.	8gg#
=68	=68	=68
1r	1r	{8aa
.	.	8gg#
.	.	8ff#}
.	.	8aa
.	.	8b
.	.	8ddn
.	.	{8aa
.	.	8gg#}
=69	=69	=69
1r	1r	8a
.	.	8cc#
.	.	{8gg#
.	.	8ff#}
.	.	8g#
.	.	8b
.	.	{8ff#
.	.	8ee}
=70	=70	=70
1r	1r	8f#
.	.	8a
.	.	{8ee
.	.	8ddn}
.	.	8e#
.	.	8dd
.	.	8cc#
.	.	8b
=71	=71	=71
1r	2r	8a
.	.	8cc#
.	.	8ff#
.	.	8gg#
.	2cc#	4.gg#
.	.	8ff#
=72	=72	=72
2f#	2cc#	2ff#
2r	4b	4ee
.	4r	4gg#
=73	=73	=73
1r	4a	4gg#T
.	2.r	8ff#
.	.	8ee
.	.	4ff#
.	.	4aa
=74	=74	=74
1r	2b	2aa
.	2r	{8bb
.	.	8gg#}
.	.	{8aa
.	.	8ff#}
=75	=75	=75
1r	1r	{8b
.	.	16ff#
.	.	16gg#
.	.	8aa}
.	.	8ff#
.	.	{8gg#
.	.	8ee}
.	.	{8ff#
.	.	8dd#}
=76	=76	=76
1r	1r	{8ee
.	.	8b
.	.	8g#}
.	.	8e
.	.	8g#
.	.	8b
.	.	8ee
.	.	8gg#
=77	=77	=77
1r	1r	{8a
.	.	8gg#
.	.	8ff#}
.	.	8ee
.	.	8ff#
.	.	8gg#
.	.	8aa
.	.	8ff#
=78	=78	=78
1r	2b	2aa
.	4e	4b
.	4r	4gg#
=79	=79	=79
1r	4a	4cc#
.	4r	4ff#
.	4B	4f#
.	4r	4dd#
=80	=80	=80
1r	2e	2ee
.	8ee	8gg#
.	8dd#	8ff#
.	4ee	4gg#
=81	=81	=81
1r	8a	8cc#
.	8g#	8b#
.	4a	4cc#
.	8dd#	8ff#
.	8cc#	8ee
.	4dd#	4ff#
=82	=82	=82
1r	2g#	2b#
.	2r	{8e
.	.	8g#}
.	.	{8cc#
.	.	8ee}
=83	=83	=83
1r	1r	{8f#
.	.	8a}
.	.	{8dd#
.	.	8ff#}
.	.	{8g#
.	.	8bn}
.	.	{8ee#
.	.	8gg#}
=84	=84	=84
1r	2a	{4gg#
.	.	4ff#}
.	8a#	{8een
.	4.r	8dd#}
.	.	{8ee
.	.	8cc#}
=85	=85	=85
2.r	4r	8dd#
.	.	8b
.	4g#	4ee
.	4e	{8dd#
.	.	8cc#}
4f#	4cc#	4ff#
=86	=86	=86
4B 4f#	4b	{8ee
.	.	8dd#
4r	4r	8cc#
.	.	8b}
8B	8f#	8dd#
8r	8r	8cc#
4r	4r	4dd#
=87	=87	=87
8e	8dd#	8gg#
4.r	4.r	8ff##
.	.	4gg#
8e	2r	8cc#
4.r	.	8b#
.	.	4cc#
=88	=88	=88
2d#	2cc#	2aa#
2r	8b	{8gg#
.	.	8ff##
.	.	8gg#}
.	.	8bb
=89	=89	=89
1r	8cc#	{8gg#
.	4.r	8ff##
.	.	8gg#}
.	.	8bb
.	8dd#	{8gg#
.	4.r	8ff##
.	.	8gg#}
.	.	8bb
=90	=90	=90
1r	{8ee	2gg#
.	8cc#	.
.	8ee	.
.	8cc#}	.
.	8g#	4r
.	8cc#	.
.	{8ee	4gg#
.	8cc#}	.
=91	=91	=91
1r	{8dd#	2gg#
.	8b	.
.	8dd#	.
.	8b}	.
.	8g#	4r
.	8b	.
.	{8dd#	4gg#
.	8b}	.
=92	=92	=92
1r	{8ee	2gg#
.	8cc#	.
.	8ee	.
.	8cc#}	.
.	8g#	4r
.	8cc#	.
.	{8ee	4gg#
.	8cc#}	.
=93	=93	=93
1r	{8dd#	2gg#
.	8b	.
.	8dd#	.
.	8b}	.
.	8g#	4r
.	8b	.
.	{8dd#	4gg#
.	8b}	.
=94	=94	=94
1r	{8dd#	[1ee
.	8b	.
.	8dd#	.
.	8b}	.
.	{8cc#	.
.	8b	.
.	8cc#	.
.	8b}	.
=95	=95	=95
1r	{8a#	2ee]
.	8cc#	.
.	8a#	.
.	8cc#}	.
.	{8f##	2r
.	8a#	.
.	8f##	.
.	8a#}	.
=96	=96	=96
1r	{8d#	1r
.	8e#	.
.	8f##	.
.	8g#	.
.	8a#	.
.	8b	.
.	8cc#	.
.	8dd#	.
=97	=97	=97
1r	8ee	1r
.	8dd#	.
.	8cc##	.
.	8dd#	.
.	8ee	.
.	8dd#	.
.	8cc##	.
.	8dd#}	.
=98	=98	=98
1r	{8f##	1r
.	8a#	.
.	8cc#	.
.	8ee}	.
.	{8dd#	.
.	8ff##	.
.	8aa#	.
.	8ccc#}	.
=99	=99	=99
1r	{8bb	1r
.	16aa#	.
.	16gg#	.
.	8ff##	.
.	8gg#}	.
.	{12b	.
.	12cc#	.
.	12dd#}	.
.	{12cc#	.
.	12b	.
.	12a#}	.
=100	=100	=100
1r	2g#	2r
.	4e	4b
.	4r	4gg#
=101	=101	=101
1r	4a	4gg#T
.	2.r	8ff#
.	.	8ee
.	.	4ff#
.	.	4aa
=102	=102	=102
1r	2b	2aa
.	2r	{8bb
.	.	8gg#}
.	.	{8aa
.	.	8ff#}
=103	=103	=103
1r	1r	{8b
.	.	16ff#
.	.	16gg#
.	.	8aa}
.	.	8ff#
.	.	{8gg#
.	.	8ee}
.	.	{8ff#
.	.	8dd#}
=104	=104	=104
1r	1r	{8ee
.	.	8b
.	.	8g#}
.	.	8e
.	.	8g#
.	.	8b
.	.	8ee
.	.	8gg#
=105	=105	=105
1r	1r	{8a
.	.	8gg#
.	.	8ff#}
.	.	8ee
.	.	8ff#
.	.	8gg#
.	.	8aa
.	.	8ff#
=106	=106	=106
1r	2b	2aa
.	4e	4b
.	4r	4gg#
=107	=107	=107
1r	4a	4cc#
.	4r	4ff#
.	4B	4f#
.	4r	4dd#
=108	=108	=108
2r	2e	2ee
==	==	==
*-	*-	*-
